public/assets/img/close.svg

<svg height="23" viewBox="0 0 23 23" width="23" xmlns="http://www.w3.org/2000/svg" xmlns:xlink="http://www.w3.org/1999/xlink"><defs><circle id="a" cx="10" cy="10" r="10"/><filter id="b" height="115%" width="115%" x="-5%" y="-5%"><feMorphology in="SourceAlpha" operator="dilate" radius="0.5" result="shadowSpreadOuter1"/><feOffset dx="1" dy="1" in="shadowSpreadOuter1" result="shadowOffsetOuter1"/><feComposite in="shadowOffsetOuter1" in2="SourceAlpha" operator="out" result="shadowOffsetOuter1"/><feColorMatrix in="shadowOffsetOuter1" type="matrix" values="0 0 0 0 0.537254902   0 0 0 0 0.537254902   0 0 0 0 0.537254902  0 0 0 0.48 0"/></filter></defs><g fill="none" fill-rule="evenodd" transform="translate(1 1)"><use fill="#000" filter="url(#b)" xlink:href="#a"/><use fill="#fff" fill-rule="evenodd" stroke="#191919" xlink:href="#a"/><path d="m14.4170806 14.3497602.5129179.0439643c.1025836.0879288.0879288.293096-.0146548.36637-.6741206-.0293096-1.2456577-.0439644-1.8465044-.0439644-.6594658 0-1.362896.0146548-1.8904687.0439644-.0879288-.0879288-.1025836-.2784412-.0293096-.36637l.4249891-.0439643c.3370603-.0293096.4982631-.0879288.4982631-.1905124 0-.0879288-.0293096-.2344767-.3224055-.644811-.6301563-.8939426-1.4508249-2.1102907-2.09563593-2.9456141-.39567951.498263-1.48013444 2.0956359-2.0663263 3.1214716-.11723838.2051672-.19051236.3663699-.19051236.4689535 0 .0879288.13189317.1612028.4249891.1905124l.3956795.0439643c.10258358.0879288.07327399.293096-.01465479.36637-.52757268-.0293096-1.08445494-.0439644-1.58271802-.0439644s-1.04049055.0146548-1.50944404.0439644c-.13189317-.0586192-.14654796-.2784412-.04396439-.36637l.36636991-.0439643c.79135901-.0879288 1.30427689-.7180851 1.74392078-1.3042769.17585756-.2344768 1.18703852-1.5240989 1.99305233-2.6964826.10258357-.1465479.13189316-.2491315.13189316-.2930959s-.05861918-.17585757-.17585755-.33706033l-2.19821948-3.15078125c-.48360828-.68877543-.76204941-.98187136-1.27496729-1.09910973l-.46895349-.10258358c-.07327398-.08792878-.05861918-.32240552.0293096-.36636991.68877543.02930959 1.17238371.04396439 1.69995639.04396439.57153706 0 1.2310029-.0146548 1.655992-.04396439.10258358.04396439.11723837.26378634.02930959.36636991l-.4103343.02930959c-.26378634.0146548-.43964389.10258358-.43964389.19051236 0 .13189317.14654796.38102471.43964389.80601381.48360829.70343023 1.34824128 2.02236191 1.87581398 2.68182775.3810247-.46895349 1.6999564-2.54993459 1.9637427-2.98957848.1172384-.19051235.2051672-.38102471.2051672-.48360828 0-.07327399-.219822-.16120277-.4836083-.19051236l-.3810247-.04396439c-.0879288-.10258357-.0879288-.30775072.0293096-.36636991.5129178.02930959.9818713.04396439 1.5534084.04396439.5422274 0 .9525617-.0146548 1.4068604-.04396439.1025836.07327398.1172384.27844113.0293096.36636991l-.3517151.02930959c-.4396439.04396439-.9672166.48360829-1.5680632 1.24565771-.5715371.73273982-1.2016933 1.61202761-1.9051235 2.59389897-.0879288.13189317-.146548.23447675-.146548.27844114s.0146548.14654796.1905123.3810247l2.4766606 3.48784158c.4982631.6887754.8792878.9232522 1.3335865.9672166z" fill="#191919"/></g></svg>

<?xml version="1.0" encoding="UTF-8"?>
<svg width="23px" height="23px" viewBox="0 0 23 23" version="1.1" xmlns="http://www.w3.org/2000/svg" xmlns:xlink="http://www.w3.org/1999/xlink">
    <!-- Generator: Sketch 48.2 (47327) - http://www.bohemiancoding.com/sketch -->
    <title>Group</title>
    <desc>Created with Sketch.</desc>
    <defs>
        <circle id="path-1" cx="10" cy="10" r="10"></circle>
        <filter x="-5.0%" y="-5.0%" width="115.0%" height="115.0%" filterUnits="objectBoundingBox" id="filter-2">
            <feMorphology radius="0.5" operator="dilate" in="SourceAlpha" result="shadowSpreadOuter1"></feMorphology>
            <feOffset dx="1" dy="1" in="shadowSpreadOuter1" result="shadowOffsetOuter1"></feOffset>
            <feComposite in="shadowOffsetOuter1" in2="SourceAlpha" operator="out" result="shadowOffsetOuter1"></feComposite>
            <feColorMatrix values="0 0 0 0 0.537254902   0 0 0 0 0.537254902   0 0 0 0 0.537254902  0 0 0 0.48 0" type="matrix" in="shadowOffsetOuter1"></feColorMatrix>
        </filter>
    </defs>
    <g id="Page-1" stroke="none" stroke-width="1" fill="none" fill-rule="evenodd">
        <g id="Group" transform="translate(1.000000, 1.000000)">
            <g id="Oval">
                <use fill="black" fill-opacity="1" filter="url(#filter-2)" xlink:href="#path-1"></use>
                <use stroke="#191919" stroke-width="1" fill="#FFFFFF" fill-rule="evenodd" xlink:href="#path-1"></use>
            </g>
            <path d="M14.4170806,14.3497602 L14.9299985,14.3937245 C15.0325821,14.4816533 15.0179273,14.6868205 14.9153437,14.7600945 C14.2412231,14.7307849 13.669686,14.7161301 13.0688393,14.7161301 C12.4093735,14.7161301 11.7059433,14.7307849 11.1783706,14.7600945 C11.0904418,14.6721657 11.075787,14.4816533 11.149061,14.3937245 L11.5740501,14.3497602 C11.9111104,14.3204506 12.0723132,14.2618314 12.0723132,14.1592478 C12.0723132,14.071319 12.0430036,13.9247711 11.7499077,13.5144368 C11.1197514,12.6204942 10.2990828,11.4041461 9.65427177,10.5688227 C9.25859226,11.0670857 8.17413733,12.6644586 7.58794547,13.6902943 C7.47070709,13.8954615 7.39743311,14.0566642 7.39743311,14.1592478 C7.39743311,14.2471766 7.52932628,14.3204506 7.82242221,14.3497602 L8.21810171,14.3937245 C8.32068529,14.4816533 8.2913757,14.6868205 8.20344692,14.7600945 C7.67587424,14.7307849 7.11899198,14.7161301 6.6207289,14.7161301 C6.12246582,14.7161301 5.58023835,14.7307849 5.11128486,14.7600945 C4.97939169,14.7014753 4.9647369,14.4816533 5.06732047,14.3937245 L5.43369038,14.3497602 C6.22504939,14.2618314 6.73796727,13.6316751 7.17761116,13.0454833 C7.35346872,12.8110065 8.36464968,11.5213844 9.17066349,10.3490007 C9.27324706,10.2024528 9.30255665,10.0998692 9.30255665,10.0559048 C9.30255665,10.0119404 9.24393747,9.88004723 9.1266991,9.71884447 L6.92847962,6.56806322 C6.44487134,5.87928779 6.16643021,5.58619186 5.65351233,5.46895349 L5.18455884,5.36636991 C5.11128486,5.27844113 5.12593966,5.04396439 5.21386844,5 C5.90264387,5.02930959 6.38625215,5.04396439 6.91382483,5.04396439 C7.48536189,5.04396439 8.14482773,5.02930959 8.56981683,5 C8.67240041,5.04396439 8.6870552,5.26378634 8.59912642,5.36636991 L8.18879212,5.3956795 C7.92500578,5.4103343 7.74914823,5.49826308 7.74914823,5.58619186 C7.74914823,5.71808503 7.89569619,5.96721657 8.18879212,6.39220567 C8.67240041,7.0956359 9.5370334,8.41456758 10.0646061,9.07403342 C10.4456308,8.60507993 11.7645625,6.52409883 12.0283488,6.08445494 C12.1455872,5.89394259 12.233516,5.70343023 12.233516,5.60084666 C12.233516,5.52757267 12.013694,5.43964389 11.7499077,5.4103343 L11.368883,5.36636991 C11.2809542,5.26378634 11.2809542,5.05861919 11.3981926,5 C11.9111104,5.02930959 12.3800639,5.04396439 12.951601,5.04396439 C13.4938284,5.04396439 13.9041627,5.02930959 14.3584614,5 C14.461045,5.07327398 14.4756998,5.27844113 14.387771,5.36636991 L14.0360559,5.3956795 C13.596412,5.43964389 13.0688393,5.87928779 12.4679927,6.64133721 C11.8964556,7.37407703 11.2662994,8.25336482 10.5628692,9.23523618 C10.4749404,9.36712935 10.4163212,9.46971293 10.4163212,9.51367732 C10.4163212,9.55764171 10.430976,9.66022528 10.6068335,9.89470202 L13.0834941,13.3825436 C13.5817572,14.071319 13.9627819,14.3057958 14.4170806,14.3497602 Z" id="X" fill="#191919"></path>
        </g>
    </g>
</svg>
